X: 29116
T: Nellie Your Favour I'm Afraid I'll Not Gain
R: hornpipe
M: 4/4
K: Ddorian
DC|:A,DDC D2EC|DEGA cedc|AcGA EGDE|CB,CD E2 DC|
A,DDC D2EC|DEGA cedc|AcGA EAGE|1 D2 DC D2 DC:|2 D2 DC D3 A||
GEGA c3 d|cAGA c2 dc|AcGA EGDE|CB,CD E2 DC|
A,DDC D2EC|DEGA cedc|AcGA EAGE|1 D2 DC D3 A:|2 D2 DC D2||

